X: 52
T:Galopede
K:G
M:4/4
dc| B2 bc A AB| G2 G2 G2 AB|cBcd edcB| A2 A2 A2 dc| B2 bc A AB| G2 G2 G2 AB| cBAg fgaf| g2 g2 g2:|
|:dc|B2 gf e2 ed|dcBc A2 dc| B2 gf edcB| A2 A2 A2BD| B2gf e2 ed|dcBc A2|dc|BdcB AcBA |G2 G2 G2:|

